**kern	**kern	**dynam
*part1	*part1	*part1
*staff2	*staff1	*
*I"Piano	*	*
*clefF4	*clefG2	*
*k[f#c#g#d#]	*k[f#c#g#d#]	*
=1	=1	=1
2.GG#X 2.E	2.B 2.b	p
4GG# 4E	4B 4b	.
=	=	=
2.FF# 2.D#	2.B 2.a	.
4FF# 4D#	4B 4a	.
=	=	=
1EE 1E	1B 1g#	.
=	=	=
4AA#X 4E	4c# 4gn	.
!	!LO:TX:b:i:t=cresc.	!
4AA# 4E	4c# 4e 4g	.
4AA# 4E	4c# 4e 4g	.
4AA# 4E	4c# 4e 4g	.
=	=	=
*	*^	*
1BB 1B	2.f#	2e	sf
.	.	(4d#	.
.	4f#	4c#)	.
=	=	=	=
!	!LO:TX:b:i:t=dim.	!	!
1BBB 1BB	1d# 1f#	(2B	.
.	.	2A)	.
*	*v	*v	*
=	=	=
[1EE [1E	2G# 2B 2e	p
.	2A 2c# 2e	.
=	=	=
!	!LO:TX:b:i:t=dim.	!
1EE] 1E]	2G# 2B 2e	.
.	2F# 2A 2d# 2e	.
=	=	=
[1EE [1E	1G# 1B 1e	pp
=	=	=
2EE] 2E]	2G# 2B 2e	.
==	==	==
*-	*-	*-
!!!system-decoration: {(s1,s2)}
